X: 10601
T: When the Morning peeps forth
C: Cheese
Q: "Moderato"
B: "Man of Feeling", Gaetano Brandi, ed. v.2 p.60-61
F: http://archive.org/details/manoffeelingorge00rugg
Z: 2012 John Chambers <jc:trillian.mit.edu>
M: 3/4
L: 1/8
K: Eb
%%continueall
E F | G2 G2 A2 | B2 c2 B2 | c2 f2 d2 | e2 z2 d e |
w: When the Morn-ing peeps forth and the ze-phyrs cool gale, car-ries
f2 B2 B2 | e2 z2 d e | f2 B2 B2 | e2 z2 d e | f2 d2 B2 | e2 d2 c2 |
w: frag-rance and health o-ver Moun-tain and Dale, car-ries frag-rance and health o-ver
B2 c2 =A2 | B2 x4 & B/c/d/e/ f/g/=a/b/ c'a | b2 d'2 c'2 | b2 B2 B B | e2 B2 A2 | G2 z2 ed |
w: Moun-tain and Dale, | | * * Up ye Nymphs and ye Swains, and to-
c2 ed c=B | c2 z2 zd | e2 BG E2 | FA c2 BA | G2 B2 =A2 | B2 z2 zd |
w: ge-ther* we'll* rove, up Hill down* the Val-*ley by* Thick-et or grove, then
e2 BA GF | G2 E2 E2 | c2 f2 e2 | d2 z2 d e | f2 B2 B2 |
w: fol-low* with* me, where the Wel-kin re-sounds with the Notes of the
e4 d c | B2 B2 B2 | B6- | B4 B2 | G2 EF GE |
w: Horn, and the cry of the Hounds* then fol-low* with*
% p.61
c2 FG AF | B2 BA GF | E3 z2 e B | e2 ed c=B | c2 c_B AG |
w: me where* the* Wel-kin* re-*sounds with the Notes of* the* Horn and* the*
A2 F2 B2 | E2 x4 & EGBegb | agfedf | e2 e2 e2 | "Da Capo"e4 |]
w: cry of the Hounds.
%
W: 2.
W: Let the wretched be Slaves to ambition and wealth,
W: All the blessings we ask is the blessing of health;
W: So shall innocence self give a warrant to joys,
W: No envy disturbs no dependance destroys.
W: Then follow with me, where the Welkin resounds
W: With the Notes of the Horn, and the cry of the Hounds.
W: 3.
W: O'er hill dale and woodland with rapture we roam,
W: Yet returning still find dearer pleasures at home;
W: Where the Chearful good humour gives honesty grace,
W: Arid the heart speaks content in the smiles of the face.
W: Then follow with me, where the Welkin resounds
W: With the Notes of the Horn, and the cry of the Hounds.
%
%%center -

% Continuation of previous page.

%%sep 2 1 500
%%sep 1 1 500

